X: 27792
T: Morris Off
R: polka
M: 2/4
K: Gmajor
|:A|B/c/d de|d2 dc|BG GA|F>E D2|B/c/d de|d2 dc|BG AF|1 G2 G:|2 G2 G G/A/||
|:BG GA|BG cA|BG GA|F>E D z|BG GA|BG cA|BG AF|1 G2 G G/A/:|2 G2 G||

